Website/public/poiTypeIcons/level_crossing.svg

<svg width="63" height="63" viewBox="0 0 63 63" fill="none" xmlns="http://www.w3.org/2000/svg">
<path d="M10.1844 22.5873L22.5873 10.1844L40.1277 10.1844L52.5306 22.5873L52.5306 40.1277L40.1277 52.5306L22.5873 52.5306L10.1844 40.1277L10.1844 22.5873Z" fill="#DE0B0B" stroke="white" stroke-width="2"/>
<path d="M19.4011 29.3636C19.3415 28.8598 19.0995 28.4688 18.6753 28.1903C18.251 27.9119 17.7307 27.7727 17.1142 27.7727C16.6635 27.7727 16.269 27.8456 15.931 27.9915C15.5962 28.1373 15.3344 28.3378 15.1455 28.593C14.9599 28.8482 14.8671 29.1383 14.8671 29.4631C14.8671 29.7348 14.9317 29.9685 15.0609 30.1641C15.1935 30.3563 15.3626 30.517 15.568 30.6463C15.7735 30.7723 15.989 30.8767 16.2144 30.9595C16.4397 31.0391 16.6469 31.1037 16.8358 31.1534L17.8699 31.4318C18.135 31.5014 18.43 31.5975 18.7548 31.7202C19.083 31.8428 19.3962 32.0102 19.6945 32.2223C19.9961 32.4311 20.2447 32.6996 20.4402 33.0277C20.6358 33.3558 20.7335 33.7585 20.7335 34.2358C20.7335 34.786 20.5894 35.2831 20.301 35.7273C20.016 36.1714 19.5983 36.5244 19.0482 36.7862C18.5013 37.0481 17.8367 37.179 17.0546 37.179C16.3254 37.179 15.694 37.0613 15.1604 36.826C14.6301 36.5907 14.2125 36.2625 13.9075 35.8416C13.6059 35.4207 13.4352 34.9318 13.3955 34.375H14.6682C14.7013 34.7595 14.8306 35.0777 15.056 35.3295C15.2847 35.5781 15.573 35.7637 15.921 35.8864C16.2724 36.0057 16.6502 36.0653 17.0546 36.0653C17.5252 36.0653 17.9478 35.9891 18.3223 35.8366C18.6968 35.6809 18.9935 35.4654 19.2122 35.1903C19.431 34.9119 19.5403 34.5871 19.5403 34.2159C19.5403 33.8778 19.4459 33.6027 19.257 33.3906C19.068 33.1785 18.8195 33.0062 18.5112 32.8736C18.203 32.741 17.8699 32.625 17.5119 32.5256L16.2591 32.1676C15.4636 31.9389 14.8339 31.6125 14.3699 31.1882C13.9059 30.764 13.6739 30.2088 13.6739 29.5227C13.6739 28.9527 13.828 28.4555 14.1362 28.0312C14.4478 27.6037 14.8654 27.2723 15.3891 27.0369C15.9161 26.7983 16.5044 26.679 17.154 26.679C17.8102 26.679 18.3936 26.7966 18.904 27.032C19.4144 27.264 19.8188 27.5821 20.1171 27.9865C20.4187 28.3909 20.5778 28.8499 20.5943 29.3636H19.4011ZM22.2039 27.9119V26.8182H29.8402V27.9119H26.6385V37H25.4056V27.9119H22.2039ZM39.9102 31.9091C39.9102 32.983 39.7163 33.911 39.3285 34.6932C38.9407 35.4754 38.4088 36.0786 37.7326 36.5028C37.0565 36.9271 36.2843 37.1392 35.4159 37.1392C34.5475 37.1392 33.7753 36.9271 33.0991 36.5028C32.423 36.0786 31.891 35.4754 31.5032 34.6932C31.1155 33.911 30.9216 32.983 30.9216 31.9091C30.9216 30.8352 31.1155 29.9072 31.5032 29.125C31.891 28.3428 32.423 27.7396 33.0991 27.3153C33.7753 26.8911 34.5475 26.679 35.4159 26.679C36.2843 26.679 37.0565 26.8911 37.7326 27.3153C38.4088 27.7396 38.9407 28.3428 39.3285 29.125C39.7163 29.9072 39.9102 30.8352 39.9102 31.9091ZM38.717 31.9091C38.717 31.0275 38.5695 30.2834 38.2745 29.6768C37.9829 29.0703 37.5868 28.6113 37.0863 28.2997C36.5892 27.9882 36.0324 27.8324 35.4159 27.8324C34.7994 27.8324 34.2409 27.9882 33.7405 28.2997C33.2433 28.6113 32.8472 29.0703 32.5522 29.6768C32.2606 30.2834 32.1147 31.0275 32.1147 31.9091C32.1147 32.7907 32.2606 33.5348 32.5522 34.1413C32.8472 34.7479 33.2433 35.2069 33.7405 35.5185C34.2409 35.83 34.7994 35.9858 35.4159 35.9858C36.0324 35.9858 36.5892 35.83 37.0863 35.5185C37.5868 35.2069 37.9829 34.7479 38.2745 34.1413C38.5695 33.5348 38.717 32.7907 38.717 31.9091ZM41.9834 37V26.8182H45.4237C46.2225 26.8182 46.8754 26.9624 47.3825 27.2507C47.8929 27.5357 48.2708 27.9219 48.516 28.4091C48.7613 28.8963 48.8839 29.4399 48.8839 30.0398C48.8839 30.6397 48.7613 31.1849 48.516 31.6754C48.2741 32.166 47.8995 32.5571 47.3924 32.8487C46.8853 33.1371 46.2357 33.2812 45.4436 33.2812H42.9777V32.1875H45.4038C45.9507 32.1875 46.3898 32.093 46.7213 31.9041C47.0527 31.7152 47.293 31.46 47.4422 31.1385C47.5946 30.8137 47.6709 30.4474 47.6709 30.0398C47.6709 29.6321 47.5946 29.2675 47.4422 28.946C47.293 28.6245 47.0511 28.3726 46.7163 28.1903C46.3816 28.0047 45.9374 27.9119 45.3839 27.9119H43.2163V37H41.9834Z" fill="white"/>
</svg>

<svg
        xmlns="http://www.w3.org/2000/svg"
        width="58"
        height="58"
        viewBox="0 0 63 63"
        fill="none"
>
    <path
            fill="#DE0B0B"
            stroke="#fff"
            stroke-width="2"
            d="m10.184 22.587 12.403-12.403h17.54l12.404 12.403v17.54L40.128 52.532h-17.54L10.183 40.128v-17.54Z"
    />
    <path
            fill="#fff"
            d="M19.401 29.364a1.56 1.56 0 0 0-.726-1.174c-.424-.278-.944-.417-1.56-.417-.451 0-.846.073-1.184.218a1.889 1.889 0 0 0-.785.602 1.442 1.442 0 0 0-.279.87c0 .272.065.505.194.701.133.192.302.353.507.482.206.126.421.23.646.313.226.08.433.145.622.194l1.034.279c.265.07.56.166.885.288.328.123.641.29.94.502.301.21.55.478.745.806.196.328.293.73.293 1.208a2.68 2.68 0 0 1-.432 1.491c-.285.444-.703.797-1.253 1.06-.547.261-1.211.392-1.993.392-.73 0-1.361-.118-1.895-.353-.53-.235-.947-.563-1.252-.984a2.808 2.808 0 0 1-.512-1.467h1.272c.033.385.163.703.388.955a2.1 2.1 0 0 0 .865.556c.351.12.73.18 1.134.18.47 0 .893-.077 1.267-.23.375-.155.672-.37.89-.646.219-.278.328-.603.328-.974 0-.338-.094-.613-.283-.825a2.08 2.08 0 0 0-.746-.517 7.823 7.823 0 0 0-1-.348l-1.252-.358c-.795-.23-1.425-.555-1.89-.98-.463-.424-.695-.98-.695-1.665 0-.57.154-1.067.462-1.492.312-.427.73-.759 1.253-.994a4.231 4.231 0 0 1 1.765-.358c.656 0 1.24.118 1.75.353.51.232.915.55 1.213.954.302.405.46.864.477 1.378h-1.193Zm2.803-1.452v-1.094h7.636v1.094H26.64V37h-1.233v-9.088h-3.202Zm17.706 3.997c0 1.074-.194 2.002-.581 2.784-.388.782-.92 1.386-1.596 1.81-.676.424-1.449.636-2.317.636-.868 0-1.64-.212-2.317-.636-.676-.424-1.208-1.028-1.596-1.81-.387-.782-.581-1.71-.581-2.784 0-1.074.194-2.002.581-2.784.388-.782.92-1.385 1.596-1.81.676-.424 1.449-.636 2.317-.636.868 0 1.64.212 2.317.636.676.425 1.208 1.028 1.596 1.81.387.782.581 1.71.581 2.784Zm-1.193 0c0-.881-.148-1.626-.442-2.232-.292-.607-.688-1.066-1.189-1.377a3.081 3.081 0 0 0-1.67-.468c-.617 0-1.175.156-1.675.468-.498.311-.894.77-1.189 1.377-.291.606-.437 1.35-.437 2.232 0 .882.146 1.626.437 2.232.295.607.691 1.066 1.188 1.378.5.311 1.06.467 1.676.467.616 0 1.173-.156 1.67-.467.5-.312.897-.771 1.189-1.378.294-.606.442-1.35.442-2.232ZM41.983 37V26.818h3.44c.8 0 1.452.144 1.96.433.51.285.888.67 1.133 1.158.245.487.368 1.03.368 1.63 0 .6-.123 1.146-.368 1.636-.242.491-.616.882-1.124 1.174-.507.288-1.156.432-1.948.432h-2.466v-1.093h2.426c.547 0 .986-.095 1.317-.284a1.69 1.69 0 0 0 .721-.765c.153-.325.229-.692.229-1.1 0-.407-.076-.772-.229-1.093a1.632 1.632 0 0 0-.726-.756c-.334-.185-.779-.278-1.332-.278h-2.168V37h-1.233Z"
    />
</svg>
